assets/svgs/misc-grey/MiscGrey62.svg

<svg width="62" height="46" viewBox="0 0 62 46" fill="none" xmlns="http://www.w3.org/2000/svg">
<path fill-rule="evenodd" clip-rule="evenodd" d="M58.75 21.54H55.685C54.856 21.54 54.185 22.21 54.185 23.04V27.47L47.668 21.9C47.648 21.89 47.626 21.88 47.606 21.86C47.562 21.83 47.517 21.79 47.468 21.76C47.43 21.74 47.392 21.72 47.352 21.7C47.305 21.68 47.257 21.66 47.207 21.64C47.164 21.62 47.12 21.61 47.075 21.6C47.026 21.58 46.978 21.57 46.927 21.57C46.878 21.56 46.83 21.55 46.781 21.55C46.751 21.55 46.723 21.54 46.693 21.54H39.518V12C39.518 10.18 37.947 8.71001 36.018 8.71001H32.047L32.037 3.56001C32.044 3.55001 32.092 3.51001 32.184 3.51001H58.75C58.835 3.51001 58.884 3.55001 58.886 3.52001L58.898 21.49C58.89 21.5 58.842 21.54 58.75 21.54ZM36.518 33.4C36.518 33.5 36.323 33.68 36.018 33.68H18.268C18.244 33.68 18.223 33.69 18.2 33.69C18.146 33.69 18.092 33.7 18.038 33.7C17.992 33.71 17.947 33.72 17.902 33.73C17.854 33.74 17.807 33.76 17.76 33.78C17.713 33.79 17.667 33.81 17.623 33.83C17.582 33.85 17.542 33.87 17.501 33.9C17.455 33.93 17.41 33.96 17.366 33.99C17.348 34 17.328 34.01 17.31 34.03L8.76801 41.11V35.18C8.76801 34.35 8.09601 33.68 7.26801 33.68H3.51801C3.21201 33.68 3.01801 33.5 3.01801 33.4V12C3.01801 11.9 3.21201 11.71 3.51801 11.71H36.018C36.323 11.71 36.518 11.9 36.518 12V33.4ZM58.75 0.51001H32.184C30.455 0.51001 29.049 1.85001 29.049 3.51001V8.71001H3.51801C1.58801 8.71001 0.0180054 10.18 0.0180054 12V33.4C0.0180054 35.21 1.58801 36.68 3.51801 36.68H5.76801V44.31C5.76801 44.89 6.10401 45.42 6.63001 45.66C6.83301 45.76 7.05101 45.81 7.26701 45.81C7.61101 45.81 7.951 45.69 8.22501 45.46L18.809 36.68H36.018C37.947 36.68 39.518 35.21 39.518 33.4V24.54H46.14L54.71 31.87C54.987 32.11 55.334 32.23 55.686 32.23C55.898 32.23 56.112 32.18 56.313 32.09C56.844 31.85 57.185 31.32 57.185 30.73V24.54H58.75C60.479 24.54 61.886 23.2 61.886 21.54V3.51001C61.886 1.85001 60.479 0.51001 58.75 0.51001Z" fill="#1A1919"/>
</svg>

<svg xmlns="http://www.w3.org/2000/svg" fill="none" viewBox="0 0 62 46"><path fill="#1A1919" fill-rule="evenodd" d="M58.75 21.54h-3.065c-.829 0-1.5.67-1.5 1.5v4.43l-6.517-5.57c-.02-.01-.042-.02-.062-.04-.044-.03-.089-.07-.138-.1l-.116-.06a7.155 7.155 0 00-.145-.06.627.627 0 00-.132-.04.384.384 0 00-.148-.03c-.049-.01-.097-.02-.146-.02-.03 0-.058-.01-.088-.01h-7.175V12c0-1.82-1.571-3.29-3.5-3.29h-3.971l-.01-5.15c.007-.01.055-.05.147-.05H58.75c.085 0 .134.04.136.01l.012 17.97c-.008.01-.056.05-.148.05zM36.518 33.4c0 .1-.195.28-.5.28h-17.75c-.024 0-.045.01-.068.01-.054 0-.108.01-.162.01l-.136.03a.775.775 0 00-.142.05.682.682 0 00-.137.05.761.761 0 00-.122.07 7.91 7.91 0 00-.135.09c-.018.01-.038.02-.056.04l-8.542 7.08v-5.93a1.5 1.5 0 00-1.5-1.5h-3.75c-.306 0-.5-.18-.5-.28V12c0-.1.194-.29.5-.29h32.5c.305 0 .5.19.5.29v21.4zM58.75.51H32.184c-1.729 0-3.135 1.34-3.135 3v5.2H3.518c-1.93 0-3.5 1.47-3.5 3.29v21.4c0 1.81 1.57 3.28 3.5 3.28h2.25v7.63c0 .58.336 1.11.862 1.35.203.1.421.15.637.15.344 0 .684-.12.958-.35l10.584-8.78h17.209c1.929 0 3.5-1.47 3.5-3.28v-8.86h6.622l8.57 7.33a1.483 1.483 0 001.603.22c.531-.24.872-.77.872-1.36v-6.19h1.565c1.729 0 3.136-1.34 3.136-3V3.51c0-1.66-1.407-3-3.136-3z" clip-rule="evenodd"/></svg>
